X: 29535
T: No, I'm Liz Carroll
R: reel
M: 4/4
K: Amajor
|:A2ef ~e3f|~e3f edcB|(3AAA ef afec|BdcB BAFG|
A2ef ~e3f|~e3f edcB|BAAF FEEF|1 EFAc BAAG:|2 EFAc BAA2||
|:aefa ~f3a|edcA BF(3FFF|a3f b3f|afec cBB2|
aefa ~f3a|edcA BF(3FFF|AF~F2 EFAf|1 ecBc A3e:|2 ecBc A3G||

